X:223
T:score298
L:1/8
Q:1/4=120
M:6/8
I:linebreak $
K:G
 (dB)G G3 | (dc)A A3 | (Bd)B (GFG) | (B3 A2) z | (Bd)B G3 | (cA)G F3 |$ (GB)d (cA)F | A3 G2 z |] %8
